polaris-icons/icons/newicons/EditMajor.svg

<svg width="20" height="20" viewBox="0 0 20 20" fill="none" xmlns="http://www.w3.org/2000/svg">
<path fill-rule="evenodd" clip-rule="evenodd" d="M16.1554 3.84452C15.1031 2.79222 13.397 2.79223 12.3447 3.84454L3.80546 12.384C3.28975 12.8997 3.00003 13.5992 3.00003 14.3285V16.2501C3.00003 16.449 3.07905 16.6398 3.2197 16.7804C3.36035 16.9211 3.55112 17.0001 3.75003 17.0001L5.67159 17.0001C6.40095 17.0001 7.10043 16.7104 7.61616 16.1946L16.1554 7.65514C17.2076 6.60285 17.2076 4.89679 16.1554 3.84452ZM13.4054 4.90518C13.8718 4.43867 14.6282 4.43867 15.0947 4.90517C15.5612 5.37166 15.5612 6.12799 15.0947 6.59449L14.4963 7.19292L12.807 5.50359L13.4054 4.90518ZM11.7463 6.56426L4.86614 13.4446C4.63172 13.6791 4.50003 13.997 4.50003 14.3285L4.50003 15.5001L5.67159 15.5001C6.00312 15.5001 6.32106 15.3684 6.55548 15.134L13.4356 8.2536L11.7463 6.56426Z" fill="black"/>
</svg>

<svg viewBox="0 0 20 20" fill="none" xmlns="http://www.w3.org/2000/svg"><path fill-rule="evenodd" clip-rule="evenodd" d="M16.155 3.845a2.695 2.695 0 0 0-3.81 0l-8.54 8.539a2.75 2.75 0 0 0-.805 1.944v1.922a.75.75 0 0 0 .75.75h1.922c.729 0 1.428-.29 1.944-.805l8.54-8.54a2.695 2.695 0 0 0 0-3.81Zm-2.75 1.06a1.194 1.194 0 1 1 1.69 1.69l-.599.598-1.689-1.69.598-.598Zm-1.659 1.66-6.88 6.88a1.25 1.25 0 0 0-.366.883v1.172h1.172c.331 0 .65-.132.883-.366l6.88-6.88-1.689-1.69Z" fill="#000"/></svg>
